www/img/github.svg

<?xml version="1.0" encoding="UTF-8" standalone="no"?>
<svg width="25px" height="24px" viewBox="0 0 25 24" version="1.1" xmlns="http://www.w3.org/2000/svg" xmlns:xlink="http://www.w3.org/1999/xlink">
    <!-- Generator: Sketch 3.8.3 (29802) - http://www.bohemiancoding.com/sketch -->
    <title>github_badge</title>
    <desc>Created with Sketch.</desc>
    <defs></defs>
    <g id="Page-1" stroke="none" stroke-width="1" fill="none" fill-rule="evenodd">
        <g id="Desktop-HD" transform="translate(-249.000000, -484.000000)" fill="#000000">
            <g id="Group" transform="translate(249.000000, 482.000000)">
                <g id="github_badge" transform="translate(0.000000, 2.000000)">
                    <path d="M12.5217391,0.357913043 C6.05634783,0.357913043 0.814956522,5.59930435 0.814956522,12.0646957 C0.814956522,17.2372174 4.16869565,21.6250435 8.82156522,23.1725217 C9.40695652,23.28 9.62086957,22.917913 9.62086957,22.6090435 C9.62086957,22.3304348 9.61043478,21.4069565 9.60417391,20.4302609 C6.34852174,21.1377391 5.66086957,19.0497391 5.66086957,19.0497391 C5.12765217,17.6973913 4.36069565,17.3373913 4.36069565,17.3373913 C3.29634783,16.6111304 4.44104348,16.6257391 4.44104348,16.6257391 C5.616,16.7071304 6.23582609,17.832 6.23582609,17.832 C7.28034783,19.6215652 8.97704348,19.104 9.64278261,18.8034783 C9.74921739,18.0490435 10.0518261,17.5314783 10.3857391,17.2403478 C7.78747826,16.9450435 5.05356522,15.9401739 5.05356522,11.4542609 C5.05356522,10.1749565 5.5106087,9.13252174 6.25773913,8.31234783 C6.13878261,8.01495652 5.73495652,6.82434783 6.37356522,5.21321739 C6.37356522,5.21321739 7.35547826,4.89913043 9.59269565,6.41321739 C10.5255652,6.15234783 11.5273043,6.024 12.5217391,6.01982609 C13.5161739,6.024 14.517913,6.15443478 15.4528696,6.41530435 C17.685913,4.89913043 18.669913,5.21530435 18.669913,5.21530435 C19.3095652,6.82747826 18.9067826,8.01704348 18.7867826,8.3133913 C19.5370435,9.13252174 19.989913,10.176 19.989913,11.4553043 C19.989913,15.9526957 17.2518261,16.9429565 14.6441739,17.2330435 C15.0657391,17.5961739 15.4382609,18.3078261 15.4382609,19.3993043 C15.4382609,20.9645217 15.4226087,22.226087 15.4226087,22.6121739 C15.4226087,22.9241739 15.6354783,23.2883478 16.2281739,23.1735652 C20.8768696,21.6229565 24.2274783,17.2361739 24.2274783,12.0657391 C24.2274783,5.6013913 18.986087,0.358956522 12.5206957,0.358956522 L12.5217391,0.357913043 Z" id="Shape"></path>
                </g>
            </g>
        </g>
    </g>
</svg>

<svg width="25" height="24" viewBox="0 0 25 24" xmlns="http://www.w3.org/2000/svg"><title>Github</title><path d="M12.522.358C6.056.358.815 5.599.815 12.065c0 5.172 3.354 9.56 8.007 11.108.585.107.799-.255.799-.564 0-.279-.01-1.202-.017-2.179-3.255.708-3.943-1.38-3.943-1.38-.533-1.353-1.3-1.713-1.3-1.713-1.065-.726.08-.711.08-.711 1.175.081 1.795 1.206 1.795 1.206 1.044 1.79 2.741 1.272 3.407.971.106-.754.409-1.272.743-1.563-2.599-.295-5.332-1.3-5.332-5.786 0-1.279.457-2.321 1.204-3.142-.12-.297-.523-1.488.116-3.099 0 0 .981-.314 3.219 1.2.933-.26 1.934-.389 2.929-.393.994.004 1.996.134 2.93.395 2.234-1.516 3.218-1.2 3.218-1.2.64 1.612.237 2.802.117 3.098.75.82 1.203 1.863 1.203 3.142 0 4.498-2.738 5.488-5.346 5.778.422.363.794 1.075.794 2.166 0 1.566-.015 2.827-.015 3.213 0 .312.212.676.805.562 4.649-1.551 8-5.938 8-11.108C24.227 5.6 18.985.359 12.52.359V.358z" fill="#000" fill-rule="evenodd"/></svg>
